src/icons/lukoil.svg

<svg width="163" height="38" viewBox="0 0 163 38" fill="none" xmlns="http://www.w3.org/2000/svg">
<g clip-path="url(#clip0_8_623)">
<path d="M43.1267 0.140137H0.144775V44.0186H43.1267V0.140137Z" fill="#ED1A3A"/>
<path d="M36.1852 4.5114C35.1974 4.5114 34.4494 5.18038 34.0767 5.98432L28.6647 15.0801C28.2894 15.9213 28.0155 16.8663 28.0155 17.4919C28.0155 18.0509 28.0906 18.5448 28.2913 19L34.1456 33.2774H11.412C10.5936 33.2774 9.91824 32.4383 9.91824 31.6636V7.06994C9.74623 3.70778 5.0127 3.70959 4.90845 7.17557L5.01186 33.2774C5.01186 36.1151 7.16085 38.3886 9.91824 38.3886H40.9134L33.3585 18.6538C33.15 17.9191 33.0571 17.2527 33.5654 16.3769L38.5637 8.07927C38.634 7.90624 38.736 7.17461 38.736 6.96431C38.637 5.45759 37.4805 4.44485 36.1852 4.5114ZM23.9135 4.52313C22.6977 4.53145 21.4833 5.38886 21.4833 7.06994V24.6687C21.4833 27.2243 18.1166 27.014 18.1166 24.6687V7.06994C18.1166 3.70778 13.2447 3.70778 13.2447 7.06994V24.8096C13.2447 28.8665 16.2121 31.5639 19.754 31.5639C23.3923 31.5639 26.3494 28.8665 26.3494 24.8096V7.06994C26.3494 5.35558 25.1293 4.51481 23.9135 4.52313Z" fill="white"/>
<path d="M51.5474 5.29639V16.9056C51.5474 19.8072 51.2581 21.4204 48.9437 21.4204C48.5111 21.4204 48.2218 21.4204 47.7892 21.2607V26.2573C48.6545 26.5821 49.233 26.5821 49.9576 26.5821C56.4627 26.5821 56.752 21.5828 56.752 18.6785V10.2957H60.5102V26.2573H65.7122V5.29639H51.5474Z" fill="white"/>
<path d="M67.4481 5.29639L74.5318 20.4541L71.9308 26.2573H77.5681L85.9523 5.29639H80.3151L77.2788 14.1637L73.664 5.29639H67.4481Z" fill="white"/>
<path d="M87.542 26.2573H92.7466V17.2277L98.0946 26.2573H104.743L97.3727 15.4547L104.6 5.29639H98.3839L92.7466 14.1637V5.29639H87.542V26.2573Z" fill="white"/>
<path d="M113.273 26.9043C120.211 26.9043 123.391 21.4205 123.391 15.777C123.391 10.2958 120.211 4.81201 113.273 4.81201C106.479 4.81201 103.299 10.2958 103.299 15.777C103.299 21.4205 106.479 26.9043 113.273 26.9043ZM113.273 21.905C110.959 21.905 108.647 19.8073 108.647 15.777C108.647 11.7466 110.959 9.81133 113.273 9.81133C115.731 9.81133 118.043 11.7466 118.043 15.777C118.043 19.8073 115.731 21.905 113.273 21.905Z" fill="white"/>
<path d="M125.994 5.29637V26.2573H131.053L138.28 13.6818V26.2573H143.341V5.29637H138.28L131.053 17.8745V5.29637H125.994ZM134.811 4.16766C136.979 4.16766 139.148 3.36106 140.162 0.941261L137.125 -0.347168C136.69 1.26603 135.39 1.42575 134.811 1.42575C134.378 1.42575 132.932 1.26603 132.643 -0.347168L129.609 0.941261C130.474 3.36106 132.789 4.16766 134.811 4.16766Z" fill="white"/>
<path d="M148.835 5.29639V16.9056C148.835 19.8072 148.543 21.4204 146.232 21.4204C145.799 21.4204 145.51 21.4204 145.074 21.2607V26.2573C145.942 26.5821 146.521 26.5821 147.243 26.5821C153.748 26.5821 154.037 21.5828 154.037 18.6785V10.2957H157.795V26.2573H163V5.29639H148.835Z" fill="white"/>
<path d="M47.8308 38.0211H48.5632V34.1318H52.84V38.0211H53.5723V30.397H52.84V33.5196H48.5632V30.397H47.8308V38.0211Z" fill="white"/>
<path d="M55.4359 38.0211H59.4469V37.4088H56.1683V34.0573H59.3166V33.445H56.1683V31.0119H59.4469V30.397H55.4359V38.0211Z" fill="white"/>
<path d="M64.2735 38.0211H64.998V36.9722H65.3029C67.7163 36.9722 68.7145 35.5134 68.7145 33.9854C68.7145 32.1965 67.4192 31.0119 65.3029 31.0119H64.998V30.0962H64.2735V31.0119H63.979C61.8497 31.0119 60.557 32.1965 60.557 33.9854C60.557 35.5134 61.5552 36.9722 63.979 36.9722H64.2735V38.0211ZM64.998 31.6242C67.4192 31.6561 67.9509 32.8115 67.9509 33.9854C67.9509 35.8169 66.7598 36.2934 64.998 36.3573V31.6242ZM64.2735 36.3573C62.5117 36.2934 61.3206 35.8169 61.3206 33.9854C61.3206 32.8115 61.8497 31.6561 64.2735 31.6242V36.3573Z" fill="white"/>
<path d="M71.3598 38.0211H72.0635V31.0119H74.0494V30.397H69.3765V31.0119H71.3598V38.0211Z" fill="white"/>
<path d="M74.9149 38.0211H75.7385L77.7244 34.6722H78.3551V38.0211H79.0901V30.397H77.3674C75.1078 30.397 74.782 31.9276 74.782 32.6038C74.782 33.8922 75.7697 34.6722 76.9321 34.6296L74.9149 38.0211ZM78.3551 34.0573H77.297C76.6976 34.0573 75.5065 33.9854 75.5065 32.5293C75.5065 31.1157 76.7679 31.0119 77.3674 31.0119H78.3551V34.0573Z" fill="white"/>
<path d="M80.9639 38.0211H81.6962V34.1318H85.973V38.0211H86.7054V30.397H85.973V33.5196H81.6962V30.397H80.9639V38.0211Z" fill="white"/>
<path d="M87.7739 38.0208H88.5089L89.5357 35.5451H92.6814L93.7109 38.0208H94.4433L91.0943 30.1997L87.7739 38.0208ZM89.8016 34.9435L91.0943 31.8236L92.4182 34.9435H89.8016Z" fill="white"/>
<path d="M95.2903 38.0211H96.1138L98.0998 34.6722H98.7305V38.0211H99.4628V30.397H97.7427C95.4831 30.397 95.1573 31.9276 95.1573 32.6038C95.1573 33.8922 96.1451 34.6722 97.3049 34.6296L95.2903 38.0211ZM98.7305 34.0573H97.6724C97.0703 34.0573 95.8793 33.9854 95.8793 32.5293C95.8793 31.1157 97.1433 31.0119 97.7427 31.0119H98.7305V34.0573Z" fill="white"/>
<path d="M103.813 38.0211H104.545V34.3288L107.894 38.0211H108.85L105.236 34.0892L108.791 30.397H107.894L104.545 33.9535V30.397H103.813V38.0211Z" fill="white"/>
<path d="M113.575 38.2604C115.796 38.2604 117.618 36.6285 117.618 34.2247C117.618 31.8236 115.796 30.1997 113.575 30.1997C111.386 30.1997 109.564 31.8236 109.564 34.2247C109.564 36.6285 111.386 38.2604 113.575 38.2604ZM113.575 37.6162C111.754 37.6162 110.328 36.2212 110.328 34.2247C110.328 32.2282 111.754 30.804 113.575 30.804C115.4 30.804 116.854 32.2282 116.854 34.2247C116.854 36.2212 115.4 37.6162 113.575 37.6162Z" fill="white"/>
<path d="M118.626 38.0211H119.33L120.021 32.3935L122.77 38.3645L125.489 32.3935L126.223 38.0211H126.883L125.856 30.0962L122.77 36.9084L119.653 30.0962L118.626 38.0211Z" fill="white"/>
<path d="M128.259 30.397V38.0211H128.991V31.0119H133.268V38.0211H134.001V30.397H128.259Z" fill="white"/>
<path d="M135.072 38.0208H135.804L136.831 35.5451H139.979L141.006 38.0208H141.738L138.389 30.1997L135.072 38.0208ZM137.097 34.9435L138.389 31.8236L139.713 34.9435H137.097Z" fill="white"/>
<path d="M142.778 38.0211H143.511V34.1318H147.787V38.0211H148.522V30.397H147.787V33.5196H143.511V30.397H142.778V38.0211Z" fill="white"/>
<path d="M150.383 30.397V38.3645L155.497 31.9889V38.0211H156.219V30.0962L151.118 36.4292V30.397H150.383Z" fill="white"/>
<path d="M157.868 38.0211H158.692L160.678 34.6722H161.309V38.0211H162.044V30.397H160.323C158.061 30.397 157.735 31.9276 157.735 32.6038C157.735 33.8922 158.723 34.6722 159.886 34.6296L157.868 38.0211ZM161.309 34.0573H160.25C159.651 34.0573 158.46 33.9854 158.46 32.5293C158.46 31.1157 159.721 31.0119 160.323 31.0119H161.309V34.0573Z" fill="white"/>
</g>
<defs>
<clipPath id="clip0_8_623">
<rect width="163" height="38" fill="white"/>
</clipPath>
</defs>
</svg>

<svg xmlns="http://www.w3.org/2000/svg" width="163" height="38" fill="none"><g clip-path="url(#a)"><path fill="#ED1A3A" d="M43.127.14H.145V44.02h42.982V.14Z"/><path fill="#fff" d="M36.185 4.511c-.988 0-1.736.67-2.108 1.473l-5.412 9.096c-.376.841-.65 1.786-.65 2.412 0 .559.076 1.053.276 1.508l5.855 14.277H11.412c-.818 0-1.494-.839-1.494-1.613V7.07c-.172-3.362-4.905-3.36-5.01.106l.104 26.101c0 2.838 2.149 5.112 4.906 5.112h30.995L33.36 18.654c-.209-.735-.302-1.401.206-2.277l4.999-8.298c.07-.173.172-.904.172-1.115-.099-1.506-1.255-2.52-2.55-2.453Zm-12.272.012c-1.215.008-2.43.866-2.43 2.547v17.599c0 2.555-3.366 2.345-3.366 0v-17.6c0-3.361-4.872-3.361-4.872 0v17.74c0 4.057 2.967 6.755 6.509 6.755 3.638 0 6.595-2.698 6.595-6.754V7.07c0-1.714-1.22-2.555-2.436-2.547ZM51.547 5.296v11.61c0 2.901-.289 4.514-2.603 4.514-.433 0-.722 0-1.155-.16v4.997c.865.325 1.444.325 2.169.325 6.505 0 6.794-5 6.794-7.904v-8.382h3.758v15.961h5.202V5.297H51.547ZM67.448 5.296l7.084 15.158-2.601 5.803h5.637l8.384-20.96h-5.637l-3.036 8.867-3.615-8.868h-6.216ZM87.542 26.257h5.205v-9.03l5.348 9.03h6.648l-7.37-10.802L104.6 5.296h-6.216l-5.637 8.868V5.296h-5.205v20.961Z"/><path fill="#fff" d="M113.273 26.904c6.938 0 10.118-5.483 10.118-11.127 0-5.481-3.18-10.965-10.118-10.965-6.794 0-9.974 5.484-9.974 10.965 0 5.644 3.18 11.127 9.974 11.127Zm0-4.999c-2.314 0-4.626-2.098-4.626-6.128s2.312-5.966 4.626-5.966c2.458 0 4.77 1.936 4.77 5.966s-2.312 6.128-4.77 6.128ZM125.994 5.296v20.961h5.059l7.227-12.575v12.575h5.061V5.297h-5.061l-7.227 12.578V5.296h-5.059Zm8.817-1.128c2.168 0 4.337-.807 5.351-3.227l-3.037-1.288c-.435 1.613-1.735 1.773-2.314 1.773-.433 0-1.879-.16-2.168-1.773L129.609.94c.865 2.42 3.18 3.227 5.202 3.227ZM148.835 5.296v11.61c0 2.901-.292 4.514-2.603 4.514-.433 0-.722 0-1.158-.16v4.997c.868.325 1.447.325 2.169.325 6.505 0 6.794-5 6.794-7.904v-8.382h3.758v15.961H163V5.297h-14.165ZM47.83 38.021h.733v-3.89h4.277v3.89h.732v-7.624h-.732v3.123h-4.277v-3.123h-.732v7.624ZM55.436 38.021h4.01v-.612h-3.278v-3.352h3.149v-.612h-3.149v-2.433h3.279v-.615h-4.011v7.624ZM64.273 38.021h.725v-1.049h.305c2.413 0 3.412-1.459 3.412-2.987 0-1.788-1.296-2.973-3.412-2.973h-.305v-.916h-.725v.916h-.294c-2.13 0-3.422 1.184-3.422 2.973 0 1.528.998 2.987 3.422 2.987h.294v1.05Zm.725-6.397c2.421.032 2.953 1.188 2.953 2.361 0 1.832-1.191 2.308-2.953 2.372v-4.733Zm-.725 4.733c-1.761-.064-2.952-.54-2.952-2.372 0-1.173.529-2.329 2.953-2.36v4.732ZM71.36 38.021h.704v-7.01h1.985v-.614h-4.673v.615h1.984v7.01ZM74.915 38.021h.823l1.986-3.349h.631v3.35h.735v-7.625h-1.723c-2.26 0-2.585 1.53-2.585 2.207 0 1.288.988 2.068 2.15 2.026l-2.017 3.391Zm3.44-3.964h-1.058c-.6 0-1.79-.072-1.79-1.528 0-1.413 1.26-1.517 1.86-1.517h.988v3.045ZM80.964 38.021h.732v-3.89h4.277v3.89h.732v-7.624h-.732v3.123h-4.277v-3.123h-.732v7.624ZM87.774 38.02h.735l1.027-2.475h3.145l1.03 2.476h.732L91.094 30.2l-3.32 7.82Zm2.028-3.077 1.292-3.12 1.324 3.12h-2.616ZM95.29 38.021h.824l1.986-3.349h.63v3.35h.733v-7.625h-1.72c-2.26 0-2.586 1.53-2.586 2.207 0 1.288.988 2.068 2.148 2.026L95.29 38.02Zm3.44-3.964h-1.058c-.602 0-1.793-.072-1.793-1.528 0-1.413 1.264-1.517 1.864-1.517h.988v3.045ZM103.813 38.021h.732V34.33l3.349 3.692h.956l-3.614-3.932 3.555-3.692h-.897l-3.349 3.556v-3.556h-.732v7.624ZM113.575 38.26c2.221 0 4.043-1.631 4.043-4.035 0-2.401-1.822-4.025-4.043-4.025-2.189 0-4.011 1.624-4.011 4.025 0 2.404 1.822 4.035 4.011 4.035Zm0-.644c-1.821 0-3.247-1.395-3.247-3.391 0-1.997 1.426-3.421 3.247-3.421 1.825 0 3.279 1.424 3.279 3.42 0 1.997-1.454 3.392-3.279 3.392ZM118.626 38.021h.704l.691-5.627 2.749 5.97 2.719-5.97.734 5.627h.66l-1.027-7.925-3.086 6.812-3.117-6.812-1.027 7.925ZM128.259 30.397v7.624h.732v-7.01h4.277v7.01h.733v-7.624h-5.742ZM135.072 38.02h.732l1.027-2.475h3.148l1.027 2.476h.732l-3.349-7.821-3.317 7.82Zm2.025-3.077 1.292-3.12 1.324 3.12h-2.616ZM142.778 38.021h.733v-3.89h4.276v3.89h.735v-7.624h-.735v3.123h-4.276v-3.123h-.733v7.624ZM150.383 30.397v7.968l5.114-6.376v6.032h.722v-7.925l-5.101 6.333v-6.032h-.735ZM157.868 38.021h.824l1.986-3.349h.631v3.35h.735v-7.625h-1.721c-2.262 0-2.588 1.53-2.588 2.207 0 1.288.988 2.068 2.151 2.026l-2.018 3.391Zm3.441-3.964h-1.059c-.599 0-1.79-.072-1.79-1.528 0-1.413 1.261-1.517 1.863-1.517h.986v3.045Z"/></g><defs><clipPath id="a"><path fill="#fff" d="M0 0h163v38H0z"/></clipPath></defs></svg>
